svg/universe.svg

<svg xmlns="http://www.w3.org/2000/svg" viewBox="0 0 64 55" enable-background="new 0 0 64 55"><style type="text/css">.st0{fill:#333333;}</style><title>universe</title><desc>Created with Sketch.</desc><path class="st0" d="M63.5 27.5c0-3.8-5.4-7.7-13.1-10.2 2-7.8 1.6-14.5-1.7-16.5-3.5-2.2-10.1.8-16.7 6.7-6.6-5.8-13.2-8.9-16.7-6.7-1.3.8-2.1 2.4-2.6 4.4-1.5.5-2.7 2-2.7 3.8 0 1.8 1.2 3.2 2.7 3.8.2 1.5.5 3 .9 4.6-7.6 2.5-13.1 6.3-13.1 10.1s5.5 7.6 13.2 10.1c-2 7.9-1.6 14.6 1.6 16.6 3.4 2.1 10.1-.9 16.7-6.8 6.6 5.9 13.3 8.9 16.7 6.8 1.5-.9 2.4-2.9 2.7-5.5 1.5-.6 2.6-2 2.6-3.7 0-1.9-1.3-3.4-3-3.9-.2-1.1-.4-2.3-.7-3.5 7.7-2.4 13.2-6.3 13.2-10.1zm-10.9-6.2c5.1 2.1 7.9 4.6 7.9 6.2 0 1.5-2.8 4.1-7.9 6.2-1 .4-2 .8-3.1 1.1-.7-2.4-1.7-4.8-2.8-7.2 1.1-2.5 2.1-4.9 2.8-7.3 1.1.3 2.1.6 3.1 1zm-20.6 22c-.9-.9-1.8-1.9-2.7-2.9l2.9.1c.9 0 1.7 0 2.6-.1-1 1-1.9 2-2.8 2.9zm.2-5.8c-1.8 0-3.7-.1-5.5-.3-1.1-1.5-2.2-3-3.2-4.6-1-1.6-2-3.4-2.8-5.1.9-1.9 1.9-3.7 3-5.5.9-1.5 1.9-2.9 3-4.3 1.9-.2 3.7-.3 5.6-.3 1.7 0 3.5.1 5.2.2 1.1 1.4 2.1 2.8 3 4.3 1.1 1.7 2.1 3.6 3 5.5-.9 1.8-1.8 3.5-2.8 5.1-1 1.6-2.1 3.1-3.2 4.6-1.9.3-3.6.4-5.3.4zm-9.7-.8c-1.7-.3-3.4-.7-5.1-1.1.5-1.5 1-3 1.6-4.5.6 1.1 1.2 2.2 1.9 3.2.5.8 1 1.6 1.6 2.4zm-3.5-12.7c-.6-1.5-1.2-3.1-1.7-4.6 1.6-.4 3.4-.8 5.1-1.1-.5.7-1 1.4-1.4 2.1l-2 3.6zm15.8-9.4l-2.6-.1c-1 0-2 0-2.9.1.9-1 1.8-2 2.8-3 .8.9 1.8 1.9 2.7 3zm6.7 3.7c1.8.3 3.5.7 5.2 1.1-.5 1.5-1 3.1-1.7 4.6-.6-1.2-1.3-2.4-2-3.5-.5-.8-1-1.5-1.5-2.2zm1.6 16c.7-1 1.3-2.1 1.9-3.2.6 1.5 1.2 3.1 1.6 4.6-1.6.4-3.4.8-5.1 1.1.5-.9 1.1-1.7 1.6-2.5zm4-31c1.3.8 1.9 4.5 1 10-.2 1-.4 2.1-.7 3.1-2.7-.7-5.5-1.2-8.5-1.6-1.5-1.9-3.1-3.7-4.8-5.3 1.2-1 2.3-2 3.5-2.8 4.6-3.1 8.2-4.2 9.5-3.4zm-31.2 10l-.1-.7c1.3-.7 2.3-2 2.3-3.6s-.9-2.9-2.2-3.6c.3-1.1.7-1.8 1.1-2.1 1.3-.8 4.9.3 9.4 3.5 1.2.8 2.3 1.8 3.5 2.8-1.7 1.6-3.3 3.4-4.8 5.4-2.9.3-5.8.9-8.4 1.6-.4-1.2-.7-2.3-.8-3.3zm-4.3 20.4c-5.2-2.1-8.1-4.7-8.1-6.2s2.9-4 8-6.2c.9-.4 1.9-.7 2.9-1.1.7 2.4 1.7 4.8 2.8 7.3-1.1 2.4-2 4.8-2.8 7.2l-2.8-1zm5.3 18c-1.3-.8-1.9-4.6-1-10.1.2-1 .4-2.1.7-3.1 2.7.7 5.5 1.2 8.4 1.6 1.5 1.9 3.1 3.7 4.8 5.3-1.1 1-2.3 1.9-3.4 2.7-4.5 3.3-8.2 4.4-9.5 3.6zm31.1-10.2c-1.2.7-2 2-2 3.5 0 1.6 1 3 2.4 3.6-.2 1.6-.7 2.6-1.3 3-1.3.8-5-.3-9.5-3.6-1.1-.8-2.3-1.7-3.4-2.7 1.6-1.6 3.2-3.4 4.7-5.3 2.9-.3 5.8-.9 8.5-1.6.3 1.2.5 2.2.6 3.1z"/><circle class="st0" cx="32" cy="28" r="5"/></svg>

<?xml version="1.0" encoding="utf-8"?>
<!-- Generator: Adobe Illustrator 21.0.0, SVG Export Plug-In . SVG Version: 6.00 Build 0)  -->
<svg version="1.1" id="Layer_1" xmlns="http://www.w3.org/2000/svg" xmlns:xlink="http://www.w3.org/1999/xlink" x="0px" y="0px"
	 viewBox="0 0 64 55" style="enable-background:new 0 0 64 55;" xml:space="preserve">
<style type="text/css">
	.st0{fill:#333333;}
</style>
<title>universe</title>
<desc>Created with Sketch.</desc>
<g>
	<path class="st0" d="M63.5,27.5c0-3.8-5.4-7.7-13.1-10.2c2-7.8,1.6-14.5-1.7-16.5C45.2-1.4,38.6,1.6,32,7.5
		c-6.6-5.8-13.2-8.9-16.7-6.7c-1.3,0.8-2.1,2.4-2.6,4.4C11.2,5.7,10,7.2,10,9c0,1.8,1.2,3.2,2.7,3.8c0.2,1.5,0.5,3,0.9,4.6
		C6,19.9,0.5,23.7,0.5,27.5c0,3.8,5.5,7.6,13.2,10.1c-2,7.9-1.6,14.6,1.6,16.6c3.4,2.1,10.1-0.9,16.7-6.8c6.6,5.9,13.3,8.9,16.7,6.8
		c1.5-0.9,2.4-2.9,2.7-5.5c1.5-0.6,2.6-2,2.6-3.7c0-1.9-1.3-3.4-3-3.9c-0.2-1.1-0.4-2.3-0.7-3.5C58,35.2,63.5,31.3,63.5,27.5z
		 M52.6,21.3c5.1,2.1,7.9,4.6,7.9,6.2c0,1.5-2.8,4.1-7.9,6.2c-1,0.4-2,0.8-3.1,1.1c-0.7-2.4-1.7-4.8-2.8-7.2
		c1.1-2.5,2.1-4.9,2.8-7.3C50.6,20.6,51.6,20.9,52.6,21.3z M32,43.3c-0.9-0.9-1.8-1.9-2.7-2.9c1,0,1.9,0.1,2.9,0.1
		c0.9,0,1.7,0,2.6-0.1C33.8,41.4,32.9,42.4,32,43.3z M32.2,37.5c-1.8,0-3.7-0.1-5.5-0.3c-1.1-1.5-2.2-3-3.2-4.6
		c-1-1.6-2-3.4-2.8-5.1c0.9-1.9,1.9-3.7,3-5.5c0.9-1.5,1.9-2.9,3-4.3c1.9-0.2,3.7-0.3,5.6-0.3c1.7,0,3.5,0.1,5.2,0.2
		c1.1,1.4,2.1,2.8,3,4.3c1.1,1.7,2.1,3.6,3,5.5c-0.9,1.8-1.8,3.5-2.8,5.1c-1,1.6-2.1,3.1-3.2,4.6C35.6,37.4,33.9,37.5,32.2,37.5z
		 M22.5,36.7c-1.7-0.3-3.4-0.7-5.1-1.1c0.5-1.5,1-3,1.6-4.5c0.6,1.1,1.2,2.2,1.9,3.2C21.4,35.1,21.9,35.9,22.5,36.7z M19,24
		c-0.6-1.5-1.2-3.1-1.7-4.6c1.6-0.4,3.4-0.8,5.1-1.1c-0.5,0.7-1,1.4-1.4,2.1C20.3,21.6,19.7,22.8,19,24z M34.8,14.6
		c-0.9,0-1.7-0.1-2.6-0.1c-1,0-2,0-2.9,0.1c0.9-1,1.8-2,2.8-3C32.9,12.5,33.9,13.5,34.8,14.6z M41.5,18.3c1.8,0.3,3.5,0.7,5.2,1.1
		c-0.5,1.5-1,3.1-1.7,4.6c-0.6-1.2-1.3-2.4-2-3.5C42.5,19.7,42,19,41.5,18.3z M43.1,34.3c0.7-1,1.3-2.1,1.9-3.2
		c0.6,1.5,1.2,3.1,1.6,4.6c-1.6,0.4-3.4,0.8-5.1,1.1C42,35.9,42.6,35.1,43.1,34.3z M47.1,3.3c1.3,0.8,1.9,4.5,1,10
		c-0.2,1-0.4,2.1-0.7,3.1c-2.7-0.7-5.5-1.2-8.5-1.6c-1.5-1.9-3.1-3.7-4.8-5.3c1.2-1,2.3-2,3.5-2.8C42.2,3.6,45.8,2.5,47.1,3.3z
		 M15.9,13.3c0-0.2-0.1-0.5-0.1-0.7c1.3-0.7,2.3-2,2.3-3.6c0-1.6-0.9-2.9-2.2-3.6c0.3-1.1,0.7-1.8,1.1-2.1c1.3-0.8,4.9,0.3,9.4,3.5
		c1.2,0.8,2.3,1.8,3.5,2.8c-1.7,1.6-3.3,3.4-4.8,5.4c-2.9,0.3-5.8,0.9-8.4,1.6C16.3,15.4,16,14.3,15.9,13.3z M11.6,33.7
		c-5.2-2.1-8.1-4.7-8.1-6.2c0-1.5,2.9-4,8-6.2c0.9-0.4,1.9-0.7,2.9-1.1c0.7,2.4,1.7,4.8,2.8,7.3c-1.1,2.4-2,4.8-2.8,7.2
		C13.5,34.4,12.5,34,11.6,33.7z M16.9,51.7c-1.3-0.8-1.9-4.6-1-10.1c0.2-1,0.4-2.1,0.7-3.1c2.7,0.7,5.5,1.2,8.4,1.6
		c1.5,1.9,3.1,3.7,4.8,5.3c-1.1,1-2.3,1.9-3.4,2.7C21.9,51.4,18.2,52.5,16.9,51.7z M48,41.5c-1.2,0.7-2,2-2,3.5c0,1.6,1,3,2.4,3.6
		c-0.2,1.6-0.7,2.6-1.3,3c-1.3,0.8-5-0.3-9.5-3.6c-1.1-0.8-2.3-1.7-3.4-2.7c1.6-1.6,3.2-3.4,4.7-5.3c2.9-0.3,5.8-0.9,8.5-1.6
		C47.7,39.6,47.9,40.6,48,41.5z"/>
	<circle class="st0" cx="32" cy="28" r="5"/>
</g>
</svg>
